icons/svg/tourist/summer_toboggan.svg

<?xml version="1.0" encoding="UTF-8" standalone="no"?>
<!-- Created with Inkscape (http://www.inkscape.org/) -->

<svg
   xmlns:dc="http://purl.org/dc/elements/1.1/"
   xmlns:cc="http://creativecommons.org/ns#"
   xmlns:rdf="http://www.w3.org/1999/02/22-rdf-syntax-ns#"
   xmlns:svg="http://www.w3.org/2000/svg"
   xmlns="http://www.w3.org/2000/svg"
   xmlns:sodipodi="http://sodipodi.sourceforge.net/DTD/sodipodi-0.dtd"
   xmlns:inkscape="http://www.inkscape.org/namespaces/inkscape"
   version="1.0"
   width="580"
   height="580"
   id="svg2"
   sodipodi:version="0.32"
   inkscape:version="0.48.4 r9939"
   sodipodi:docname="attraction_slide.svg"
   inkscape:output_extension="org.inkscape.output.svg.inkscape">
  <metadata
     id="metadata2975">
    <rdf:RDF>
      <cc:Work
         rdf:about="">
        <dc:format>image/svg+xml</dc:format>
        <dc:type
           rdf:resource="http://purl.org/dc/dcmitype/StillImage" />
        <cc:license
           rdf:resource="http://web.resource.org/cc/PublicDomain" />
        <dc:language>en</dc:language>
        <dc:title></dc:title>
      </cc:Work>
    </rdf:RDF>
  </metadata>
  <sodipodi:namedview
     inkscape:window-height="1004"
     inkscape:window-width="1920"
     inkscape:pageshadow="2"
     inkscape:pageopacity="0.0"
     guidetolerance="10.0"
     gridtolerance="10.0"
     objecttolerance="10.0"
     borderopacity="1.0"
     bordercolor="#666666"
     pagecolor="#ffffff"
     id="base"
     inkscape:zoom="0.32586207"
     inkscape:cx="665.30777"
     inkscape:cy="403.99497"
     inkscape:window-x="1680"
     inkscape:window-y="0"
     inkscape:current-layer="svg2"
     showgrid="false"
     inkscape:window-maximized="1" />
  <defs
     id="defs4">
    <inkscape:perspective
       sodipodi:type="inkscape:persp3d"
       inkscape:vp_x="0 : 290 : 1"
       inkscape:vp_y="0 : 1000 : 0"
       inkscape:vp_z="580 : 290 : 1"
       inkscape:persp3d-origin="290 : 193.33333 : 1"
       id="perspective2441" />
    <inkscape:perspective
       id="perspective3452"
       inkscape:persp3d-origin="30 : 20 : 1"
       inkscape:vp_z="60 : 30 : 1"
       inkscape:vp_y="0 : 1000 : 0"
       inkscape:vp_x="0 : 30 : 1"
       sodipodi:type="inkscape:persp3d" />
    <symbol
       viewBox="244.5 110 489 219.9"
       id="symbol-university">
      <path
         id="path4460"
         d="M79,43l57,119c0,0,21-96,104-96s124,106,124,106l43-133l82-17L0,17L79,43z" />
      <path
         id="path4462"
         d="M94,176l-21,39"
         stroke-width="20"
         stroke="#000000"
         fill="none" />
      <path
         id="path4464"
         d="M300,19c0,10.5-22.6,19-50.5,19S199,29.5,199,19s22.6-19,50.5-19S300,8.5,300,19z" />
      <path
         id="path4466"
         d="M112,216l-16-38L64,88c0,0-9-8-4-35s16-24,16-24"
         stroke-width="20"
         stroke="#000000"
         ill="none" />
    </symbol>
    <inkscape:perspective
       id="perspective4471"
       inkscape:persp3d-origin="372.04724 : 350.78739 : 1"
       inkscape:vp_z="744.09448 : 526.18109 : 1"
       inkscape:vp_y="0 : 1000 : 0"
       inkscape:vp_x="0 : 526.18109 : 1"
       sodipodi:type="inkscape:persp3d" />
    <inkscape:perspective
       id="perspective4668"
       inkscape:persp3d-origin="6 : 4 : 1"
       inkscape:vp_z="12 : 6 : 1"
       inkscape:vp_y="0 : 1000 : 0"
       inkscape:vp_x="0 : 6 : 1"
       sodipodi:type="inkscape:persp3d" />
    <inkscape:perspective
       id="perspective4904"
       inkscape:persp3d-origin="16 : 10.666667 : 1"
       inkscape:vp_z="32 : 16 : 1"
       inkscape:vp_y="0 : 1000 : 0"
       inkscape:vp_x="0 : 16 : 1"
       sodipodi:type="inkscape:persp3d" />
  </defs>
  <g
     id="g1327"
     transform="translate(0.0735,-0.43022222)">
    <path
       d="M 66.275,1.768 C 24.94,1.768 1.704,23.139 1.704,66.804 l 0,450.123 c 0,40.844 20.895,62.229 62.192,62.229 l 452.024,0 c 41.307,0 62.229,-20.315 62.229,-62.229 l 0,-450.123 c 0,-42.601 -20.922,-65.036 -63.521,-65.036 -0.004,0 -448.495,-0.143 -448.353,0 z"
       style="fill:#111111;stroke:#eeeeee;stroke-width:3.40799999"
       id="path1329"
       inkscape:connector-curvature="0" />
  </g>
  <rect
     y="-69.882286"
     x="207.25069"
     style="fill:none"
     width="376.44794"
     height="376.44794"
     id="rect3" />
  <path
     style="color:#000000;fill:#ffffff;fill-opacity:1;fill-rule:evenodd;stroke:none;stroke-width:45.29999924;marker:none;visibility:visible;display:inline;overflow:visible;enable-background:accumulate"
     d="m 29.153439,266.98413 38.115238,0 c 0,0 -30.275705,11.54844 -4.465413,27.66695 25.810292,16.11852 237.358826,26.11518 246.595856,101.46612 9.23703,75.35094 -156.00014,110.23201 -156.00014,110.23201 l -124.245541,0 z"
     id="rect4300"
     inkscape:connector-curvature="0"
     sodipodi:nodetypes="cczzccc" />
  <path
     style="color:#000000;fill:#ffffff;fill-opacity:1;fill-rule:evenodd;stroke:none;stroke-width:45.29999924;marker:none;visibility:visible;display:inline;overflow:visible;enable-background:accumulate"
     d="m 145.40212,266.21692 406.21163,0 0,240.13228 -142.75637,0 c 0,0 83.38113,-53.22003 33.63881,-126.01242 -57.32277,-83.88555 -295.81579,-81.35749 -315.26747,-104.94454 -6.7102,-8.13678 18.1734,-9.17532 18.1734,-9.17532 z"
     id="rect4303"
     inkscape:connector-curvature="0"
     sodipodi:nodetypes="ccccssc" />
  <path
     style="color:#000000;fill:#ffffff;fill-opacity:1;fill-rule:evenodd;stroke:none;stroke-width:40;marker:none;visibility:visible;display:inline;overflow:visible;enable-background:accumulate"
     d="m 433.01871,413.03921 c 0,29.84659 -24.19543,54.04201 -54.04203,54.04201 -29.84657,0 -54.04201,-24.19542 -54.04201,-54.04201 97.39031,-0.0413 18.1395,-0.19126 108.08404,0 z"
     id="path4271-6"
     inkscape:connector-curvature="0"
     sodipodi:nodetypes="cscc" />
  <path
     style="color:#000000;fill:#ffffff;fill-opacity:1;fill-rule:evenodd;stroke:none;stroke-width:40;marker:none;visibility:visible;display:inline;overflow:visible;enable-background:accumulate"
     d="m 335.85433,205.35129 c 0,21.33774 -17.29766,38.63539 -38.63542,38.63539 -21.33772,0 -38.63539,-17.29765 -38.63539,-38.63539 69.62571,-0.0295 12.96818,-0.13674 77.27081,0 z"
     id="path4271-6-2"
     inkscape:connector-curvature="0"
     sodipodi:nodetypes="cscc" />
  <path
     style="color:#000000;fill:#ffffff;fill-opacity:1;fill-rule:evenodd;stroke:none;stroke-width:40;marker:none;visibility:visible;display:inline;overflow:visible;enable-background:accumulate"
     d="m 425.62419,204.66075 c 0,21.33775 -17.29766,38.63539 -38.63542,38.63539 -21.33772,0 -38.63539,-17.29764 -38.63539,-38.63539 69.62571,-0.0295 12.96818,-0.13674 77.27081,0 z"
     id="path4271-6-3"
     inkscape:connector-curvature="0"
     sodipodi:nodetypes="cscc" />
  <path
     style="color:#000000;fill:#ffffff;fill-opacity:1;fill-rule:evenodd;stroke:none;stroke-width:40;marker:none;visibility:visible;display:inline;overflow:visible;enable-background:accumulate"
     d="m 515.39411,203.97021 c 0,21.33775 -17.29766,38.6354 -38.63542,38.6354 -21.33773,0 -38.63539,-17.29765 -38.63539,-38.6354 69.62571,-0.0295 12.96818,-0.13674 77.27081,0 z"
     id="path4271-6-6"
     inkscape:connector-curvature="0"
     sodipodi:nodetypes="cscc" />
  <path
     inkscape:connector-curvature="0"
     style="fill:#ffffff;fill-opacity:1;stroke:#ffffff;stroke-width:15.36199474;stroke-linecap:round;stroke-miterlimit:10;stroke-opacity:1"
     d="m 109.32542,58.636182 c -25.347326,0 -46.086011,20.738692 -46.086011,46.085978 0,25.34729 20.738685,46.08598 46.086011,46.08598 25.34729,0 46.08598,-20.73869 46.08598,-46.08598 0,-25.347286 -20.73869,-46.085978 -46.08598,-46.085978 l 0,0 z"
     id="path3" />
  <line
     style="fill:none;stroke:#ffffff;stroke-width:15.36199474;stroke-linecap:round;stroke-miterlimit:10;stroke-opacity:1"
     x1="109.32541"
     y1="20.231199"
     x2="109.32541"
     y2="35.593197"
     id="line5" />
  <line
     style="fill:none;stroke:#ffffff;stroke-width:15.36199474;stroke-linecap:round;stroke-miterlimit:10;stroke-opacity:1"
     x1="109.32541"
     y1="173.85118"
     x2="109.32541"
     y2="189.21318"
     id="line7" />
  <line
     style="fill:none;stroke:#ffffff;stroke-width:15.36199474;stroke-linecap:round;stroke-miterlimit:10;stroke-opacity:1"
     x1="193.81638"
     y1="104.72216"
     x2="178.45441"
     y2="104.72216"
     id="line9" />
  <line
     style="fill:none;stroke:#ffffff;stroke-width:15.36199474;stroke-linecap:round;stroke-miterlimit:10;stroke-opacity:1"
     x1="40.19643"
     y1="104.72216"
     x2="24.83444"
     y2="104.72216"
     id="line11" />
  <line
     style="fill:none;stroke:#ffffff;stroke-width:15.36199474;stroke-linecap:round;stroke-miterlimit:10;stroke-opacity:1"
     x1="49.413605"
     y1="44.810368"
     x2="60.167007"
     y2="55.56377"
     id="line13" />
  <line
     style="fill:none;stroke:#ffffff;stroke-width:15.36199474;stroke-linecap:round;stroke-miterlimit:10;stroke-opacity:1"
     x1="158.48375"
     y1="153.88054"
     x2="169.23714"
     y2="164.6339"
     id="line15" />
  <line
     style="fill:none;stroke:#ffffff;stroke-width:15.36199474;stroke-linecap:round;stroke-miterlimit:10;stroke-opacity:1"
     x1="169.23714"
     y1="44.810368"
     x2="158.48375"
     y2="55.56377"
     id="line17" />
  <line
     style="fill:none;stroke:#ffffff;stroke-width:15.36199474;stroke-linecap:round;stroke-miterlimit:10;stroke-opacity:1"
     x1="60.167007"
     y1="153.88054"
     x2="49.413605"
     y2="164.6339"
     id="line19" />
</svg>

<svg width="580" height="580" viewBox="0 0 580 580" fill="none" xmlns="http://www.w3.org/2000/svg">
<g clip-path="url(#clip0)">
<path d="M66.3483 1.33797C25.0133 1.33797 1.77734 22.709 1.77734 66.374V516.497C1.77734 557.341 22.6723 578.726 63.9693 578.726H515.993C557.3 578.726 578.222 558.411 578.222 516.497V66.374C578.222 23.773 557.3 1.33797 514.701 1.33797C514.697 1.33797 66.2063 1.19497 66.3483 1.33797V1.33797Z" fill="#111111" stroke="#EEEEEE" stroke-width="3.408"/>
<path fill-rule="evenodd" clip-rule="evenodd" d="M29.1533 266.984H67.2686C67.2686 266.984 36.9929 278.533 62.8031 294.651C88.6134 310.77 300.162 320.766 309.399 396.117C318.636 471.468 153.399 506.349 153.399 506.349H29.1533V266.984Z" fill="white"/>
<path fill-rule="evenodd" clip-rule="evenodd" d="M145.402 266.217H551.614V506.349H408.857C408.857 506.349 492.238 453.129 442.496 380.337C385.173 296.451 146.68 298.979 127.229 275.392C120.518 267.255 145.402 266.217 145.402 266.217V266.217Z" fill="white"/>
<path fill-rule="evenodd" clip-rule="evenodd" d="M433.019 413.039C433.019 442.886 408.823 467.081 378.977 467.081C349.13 467.081 324.935 442.886 324.935 413.039C422.325 412.998 343.074 412.848 433.019 413.039Z" fill="white"/>
<path fill-rule="evenodd" clip-rule="evenodd" d="M335.854 205.351C335.854 226.689 318.557 243.986 297.219 243.986C275.881 243.986 258.583 226.689 258.583 205.351C328.209 205.322 271.552 205.214 335.854 205.351Z" fill="white"/>
<path fill-rule="evenodd" clip-rule="evenodd" d="M425.624 204.661C425.624 225.998 408.327 243.296 386.989 243.296C365.651 243.296 348.354 225.998 348.354 204.661C417.979 204.631 361.322 204.524 425.624 204.661Z" fill="white"/>
<path fill-rule="evenodd" clip-rule="evenodd" d="M515.394 203.97C515.394 225.308 498.096 242.606 476.758 242.606C455.421 242.606 438.123 225.308 438.123 203.97C507.749 203.941 451.091 203.833 515.394 203.97Z" fill="white"/>
<path d="M109.325 58.6357C83.9779 58.6357 63.2393 79.3744 63.2393 104.722C63.2393 130.069 83.9779 150.808 109.325 150.808C134.673 150.808 155.411 130.069 155.411 104.722C155.411 79.3744 134.673 58.6357 109.325 58.6357V58.6357Z" fill="white" stroke="white" stroke-width="15.362" stroke-miterlimit="10" stroke-linecap="round"/>
<path d="M109.325 20.2314V35.5934" stroke="white" stroke-width="15.362" stroke-miterlimit="10" stroke-linecap="round"/>
<path d="M109.325 173.852V189.214" stroke="white" stroke-width="15.362" stroke-miterlimit="10" stroke-linecap="round"/>
<path d="M193.817 104.722H178.455" stroke="white" stroke-width="15.362" stroke-miterlimit="10" stroke-linecap="round"/>
<path d="M40.1965 104.722H24.8345" stroke="white" stroke-width="15.362" stroke-miterlimit="10" stroke-linecap="round"/>
<path d="M49.4136 44.8105L60.167 55.5639" stroke="white" stroke-width="15.362" stroke-miterlimit="10" stroke-linecap="round"/>
<path d="M158.484 153.881L169.237 164.634" stroke="white" stroke-width="15.362" stroke-miterlimit="10" stroke-linecap="round"/>
<path d="M169.237 44.8105L158.484 55.5639" stroke="white" stroke-width="15.362" stroke-miterlimit="10" stroke-linecap="round"/>
<path d="M60.167 153.881L49.4136 164.634" stroke="white" stroke-width="15.362" stroke-miterlimit="10" stroke-linecap="round"/>
</g>
<defs>
<clipPath id="clip0">
<path d="M0 0H580V580H0V0Z" fill="white"/>
</clipPath>
</defs>
</svg>
